static/assets/images/networks/polygon-zkevm.svg

<svg width="256" height="256" viewBox="0 0 256 256" fill="none" xmlns="http://www.w3.org/2000/svg">
<path d="M256 128C256 161.948 242.514 194.505 218.51 218.51C194.505 242.514 161.948 256 128 256C94.0523 256 61.495 242.514 37.4903 218.51C13.4857 194.505 0 161.948 0 128C0 94.0523 13.4857 61.495 37.4903 37.4903C61.495 13.4857 94.0523 0 128 0C161.948 0 194.505 13.4857 218.51 37.4903C242.514 61.495 256 94.0523 256 128Z" fill="#6F4ADA"/>
<path d="M122.742 73.3524C119.496 75.2438 117.4 78.875 117.152 83.0355L117.437 113.326L117.068 133.555L117.586 163.441C117.571 167.198 115.474 170.829 111.995 173.124L91.4767 184.41C88.2304 186.301 83.8342 186.453 80.1988 184.354L60.0022 172.693C56.7707 170.827 54.471 167.348 54.3149 162.954L54.233 139.775C54.2478 136.018 56.3443 132.387 59.8235 130.092L80.3422 118.806C83.5885 116.915 87.9846 116.763 91.62 118.862L104.95 126.558L104.915 106.096L91.1812 98.167C87.9497 96.3013 83.7865 96.0494 79.9034 98.1111L42.2834 119.427C39.0371 121.318 36.9407 124.95 36.6929 129.11L36.9806 173.388C36.7328 177.549 39.0325 181.028 42.2639 182.894L80.2336 204.816C83.4651 206.682 87.6282 206.933 91.5113 204.872L129.364 183.152C132.611 181.261 134.707 177.629 134.955 173.469L134.841 143.816L134.806 123.354L134.692 93.7002C134.707 89.9432 136.803 86.312 140.282 84.0171L160.397 72.4984C163.643 70.607 168.04 70.4553 171.675 72.5542L191.872 84.2147C195.103 86.0804 197.403 89.56 197.559 93.9537L197.874 116.729C197.859 120.487 195.762 124.118 192.283 126.413L172.168 137.931C168.922 139.823 164.526 139.975 160.89 137.876L147.965 130.413L147.999 150.875L161.329 158.571C164.561 160.437 168.724 160.688 172.607 158.627L210.46 136.907C213.706 135.016 215.803 131.385 216.051 127.224L215.934 83.5825C215.949 79.8254 213.882 75.9424 210.247 73.8435L171.873 51.6886C168.642 49.8229 164.479 49.5711 160.595 51.6327L122.742 73.3524Z" fill="white"/>
</svg>

<svg xmlns="http://www.w3.org/2000/svg" fill="none" viewBox="0 0 256 256"><path fill="#6F4ADA" d="M256 128a128 128 0 0 1-37.49 90.51 128.003 128.003 0 0 1-181.02 0A128.001 128.001 0 1 1 256 128"/><path fill="#fff" d="M122.742 73.352c-3.246 1.892-5.342 5.523-5.59 9.683l.285 30.291-.369 20.229.518 29.886c-.015 3.757-2.112 7.388-5.591 9.683L91.477 184.41c-3.247 1.891-7.643 2.043-11.278-.056l-20.197-11.661c-3.231-1.866-5.531-5.345-5.687-9.739l-.082-23.179c.015-3.757 2.111-7.388 5.59-9.683l20.52-11.286c3.245-1.891 7.642-2.043 11.277.056l13.33 7.696-.035-20.462-13.734-7.929c-3.231-1.866-7.394-2.118-11.278-.056l-37.62 21.316c-3.246 1.891-5.342 5.523-5.59 9.683l.288 44.278c-.248 4.161 2.051 7.64 5.283 9.506l37.97 21.922c3.231 1.866 7.394 2.117 11.277.056l37.853-21.72c3.247-1.891 5.343-5.523 5.591-9.683l-.114-29.653-.035-20.462-.114-29.654c.015-3.757 2.111-7.388 5.59-9.683l20.115-11.519c3.246-1.891 7.643-2.043 11.278.056l20.197 11.66c3.231 1.866 5.531 5.346 5.687 9.74l.315 22.775c-.015 3.758-2.112 7.389-5.591 9.684l-20.115 11.518c-3.246 1.892-7.642 2.044-11.278-.055l-12.925-7.463.034 20.462 13.33 7.696c3.232 1.866 7.395 2.117 11.278.056l37.853-21.72c3.246-1.891 5.343-5.522 5.591-9.683l-.117-43.642c.015-3.757-2.052-7.64-5.687-9.738l-38.374-22.155c-3.231-1.866-7.394-2.118-11.278-.056z"/></svg>
